X:1
T:Avant-garde Study 001
C:Generated
M:5/8
L:1/8
Q:1/8=69
K:Elyd
^a3 A,2 | d3 ^c2 | ^F2 B, F,2 | c f e3 | A, ^G, A ^G,2 | G,3 c ^C | G3 C B | f2 C, ^F2 | B,3 e2 | F ^A3 ^d | a2 ^D, ^G A, | e3 ^A2 | ^D,2 ^a a ^g | a2 ^A2 F, | C3 ^C ^f | g ^G,3 a | e3 ^D ^A | ^D2 E, a e | A,2 D, ^D2 |
